src/asset/image/health-case.svg

<svg width="24" height="24" viewBox="0 0 24 24" fill="none" xmlns="http://www.w3.org/2000/svg">
<path fill-rule="evenodd" clip-rule="evenodd" d="M15 1C16.1046 1 17 1.89543 17 3V5H22C23.1046 5 24 5.89543 24 7V21C24 22.1046 23.1046 23 22 23H2C0.89543 23 0 22.1046 0 21V7C0 5.89543 0.89543 5 2 5H7V3C7 1.89543 7.89543 1 9 1H15ZM22 7H2V21H22V7ZM13 10V13H16V15H13V18H11V15H8V13H11V10H13ZM15 3H9V5H15V3Z" fill="#3E3832"/>
</svg>

<svg width="24" height="24" viewBox="0 0 24 24" fill="none" xmlns="http://www.w3.org/2000/svg"><path fill-rule="evenodd" clip-rule="evenodd" d="M15 1a2 2 0 012 2v2h5a2 2 0 012 2v14a2 2 0 01-2 2H2a2 2 0 01-2-2V7a2 2 0 012-2h5V3a2 2 0 012-2h6zm7 6H2v14h20V7zm-9 3v3h3v2h-3v3h-2v-3H8v-2h3v-3h2zm2-7H9v2h6V3z" fill="#3E3832"/></svg>
